X: 16783
T: Harold's
R: polka
M: 2/4
K: Cmajor
|:gf ed|ce GG|AB AG|ce df|
gf ed|ce GG|AB AB|1 c2 cf:|2 c2 cA||
|:Gc cd|ef gc|AB AG|ed BG|
Gc cd|ef gc|AB AB|1 c2 cA:|2 c2 cf||

